public/static/icons/navbar/ic_components.svg

<svg height="24" viewBox="0 0 24 24" width="24" xmlns="http://www.w3.org/2000/svg"><g transform="translate(2 1.5)"><path d="m15.225 11.55c2.6095454 0 4.725 2.1154546 4.725 4.725s-2.1154546 4.725-4.725 4.725-4.725-2.1154546-4.725-4.725 2.1154546-4.725 4.725-4.725zm-6.32252251-10.43233008c.49481727-.30238833 1.14108011-.14639386 1.44346841.34842341l3.9027903 6.38638416c.1007468.16485831.1540541.35431752.1540541.54752251 0 .57989899-.470101 1.05-1.05 1.05h-7.80558062c-.19320499 0-.3826642-.05330733-.54752251-.15405407-.49481727-.30238834-.65081175-.94865117-.34842341-1.44346844l3.90279031-6.38638416c.08685979-.14213419.20628923-.26156363.34842342-.34842341z"/><path d="m1.5 12.075h5.4c.82842712 0 1.5.6715729 1.5 1.5v5.4c0 .8284271-.67157288 1.5-1.5 1.5h-5.4c-.82842712 0-1.5-.6715729-1.5-1.5v-5.4c0-.8284271.67157288-1.5 1.5-1.5z" opacity=".48"/></g></svg>

<svg xmlns="http://www.w3.org/2000/svg" width="24" height="24" viewBox="0 0 24 24">
  <g transform="translate(2 1.5)">
    <path d="M15.225,11.55 C17.8345454,11.55 19.95,13.6654546 19.95,16.275 C19.95,18.8845454 17.8345454,21 15.225,21 C12.6154546,21 10.5,18.8845454 10.5,16.275 C10.5,13.6654546 12.6154546,11.55 15.225,11.55 Z M8.90247749,1.11766992 C9.39729476,0.815281585 10.0435576,0.971276061 10.3459459,1.46609333 L10.3459459,1.46609333 L14.2487362,7.85247749 C14.349483,8.0173358 14.4027903,8.20679501 14.4027903,8.4 C14.4027903,8.97989899 13.9326893,9.45 13.3527903,9.45 L13.3527903,9.45 L5.54720968,9.45 C5.35400469,9.45 5.16454548,9.39669267 4.99968717,9.29594593 C4.5048699,8.99355759 4.34887542,8.34729476 4.65126376,7.85247749 L4.65126376,7.85247749 L8.55405407,1.46609333 C8.64091386,1.32395914 8.7603433,1.2045297 8.90247749,1.11766992 Z"/>
    <path d="M1.5,12.075 L6.9,12.075 C7.72842712,12.075 8.4,12.7465729 8.4,13.575 L8.4,18.975 C8.4,19.8034271 7.72842712,20.475 6.9,20.475 L1.5,20.475 C0.671572875,20.475 5.45542273e-16,19.8034271 0,18.975 L0,13.575 C1.20591542e-16,12.7465729 0.671572875,12.075 1.5,12.075 Z" opacity=".48"/>
  </g>
</svg>
